icons/people-16.svg

<svg xmlns="http://www.w3.org/2000/svg" width="16" height="16" viewBox="0 0 16 16"><path d="M2 5.5a3.5 3.5 0 115.898 2.549 5.508 5.508 0 013.034 4.084.75.75 0 11-1.482.235 4 4 0 00-7.9 0 .75.75 0 01-1.482-.236A5.507 5.507 0 013.102 8.05 3.493 3.493 0 012 5.5zM11 4a3.001 3.001 0 012.22 5.018 5.01 5.01 0 012.56 3.012.749.749 0 01-.885.954.752.752 0 01-.549-.514 3.507 3.507 0 00-2.522-2.372.75.75 0 01-.574-.73v-.352a.75.75 0 01.416-.672A1.5 1.5 0 0011 5.5.75.75 0 0111 4zm-5.5-.5a2 2 0 10-.001 3.999A2 2 0 005.5 3.5z"/></svg>

<svg xmlns="http://www.w3.org/2000/svg" width="16" height="16" viewBox="0 0 16 16">
  <defs/>
  <path d="M2,5.5 C2,3.903 3.081,2.508 4.628,2.11 C6.176,1.712 7.796,2.412 8.566,3.812 C9.336,5.211 9.062,6.955 7.898,8.049 C9.515,8.834 10.648,10.358 10.932,12.133 C10.997,12.542 10.718,12.927 10.309,12.991 C9.899,13.056 9.515,12.777 9.45,12.368 C9.137,10.429 7.464,9.004 5.5,9.004 C3.536,9.004 1.863,10.429 1.55,12.368 C1.485,12.777 1.1,13.056 0.691,12.991 C0.282,12.926 0.003,12.541 0.068,12.132 C0.353,10.358 1.485,8.834 3.102,8.05 C2.398,7.389 1.999,6.466 2,5.5 Z M11,4 C12.187,4 13.263,4.7 13.744,5.786 C14.224,6.872 14.019,8.139 13.22,9.018 C14.45,9.629 15.376,10.718 15.78,12.03 C15.86,12.287 15.797,12.566 15.614,12.763 C15.431,12.96 15.157,13.044 14.895,12.984 C14.633,12.923 14.424,12.727 14.346,12.47 C13.986,11.298 13.024,10.387 11.824,10.098 C11.487,10.017 11.25,9.715 11.25,9.368 L11.25,9.016 C11.25,8.731 11.411,8.471 11.666,8.344 C12.29,8.035 12.619,7.336 12.46,6.658 C12.302,5.98 11.697,5.5 11,5.5 C10.586,5.5 10.25,5.164 10.25,4.75 C10.25,4.336 10.586,4 11,4 Z M5.5,3.5 C4.395,3.5 3.5,4.395 3.5,5.5 C3.5,6.605 4.395,7.5 5.5,7.5 C6.605,7.5 7.5,6.605 7.5,5.5 C7.5,4.395 6.605,3.5 5.5,3.5 Z"/>
</svg>
